web/app/themes/new-web-marcello/dist/images/icons/website-service-icon.svg

<svg width="188" height="188" viewBox="0 0 188 188" fill="none" xmlns="http://www.w3.org/2000/svg">
<path d="M35.4945 116.285H129.876V122.885H35.4945V116.285Z" fill="#EBE7F2"/>
<path d="M25.7031 127.291C24.689 127.291 23.8672 126.47 23.8672 125.455V47.6117C23.8672 44.5743 26.3376 42.1039 29.375 42.1039H158.625C161.662 42.1039 164.133 44.5743 164.133 47.6117V77.1093C164.133 78.1235 163.311 78.9453 162.297 78.9453C161.283 78.9453 160.461 78.1235 160.461 77.1093V47.6117C160.461 46.5997 159.638 45.7758 158.625 45.7758H29.375C28.3623 45.7758 27.5391 46.5997 27.5391 47.6117V125.455C27.5391 126.47 26.7173 127.291 25.7031 127.291Z" fill="#846F75"/>
<path d="M122.457 124.721H35.4945C34.4803 124.721 33.6586 123.899 33.6586 122.885V53.1195C33.6586 52.1053 34.4803 51.2836 35.4945 51.2836H152.505C153.52 51.2836 154.341 52.1053 154.341 53.1195V77.1093C154.341 78.1235 153.52 78.9453 152.505 78.9453C151.491 78.9453 150.669 78.1235 150.669 77.1093V54.9554H37.3304V121.049H122.457C123.471 121.049 124.293 121.871 124.293 122.885C124.293 123.899 123.471 124.721 122.457 124.721Z" fill="#846F75"/>
<path d="M122.457 145.896H19.9508C15.6312 145.896 12.1172 142.382 12.1172 138.062C12.1172 133.743 15.6312 130.229 19.9508 130.229H122.457C123.471 130.229 124.293 131.051 124.293 132.065C124.293 133.079 123.471 133.901 122.457 133.901H19.9508C17.6558 133.901 15.7891 135.768 15.7891 138.062C15.7891 140.357 17.6558 142.224 19.9508 142.224H122.457C123.471 142.224 124.293 143.046 124.293 144.06C124.293 145.074 123.471 145.896 122.457 145.896Z" fill="#846F75"/>
<path d="M134.968 143.38H170.043V149.956H134.968V143.38Z" fill="#EBE7F2"/>
<path d="M175.134 163.47H129.876C128.861 163.47 128.04 162.648 128.04 161.634V83.79C128.04 82.7759 128.861 81.9541 129.876 81.9541H175.134C176.148 81.9541 176.97 82.7759 176.97 83.79V161.634C176.97 162.648 176.148 163.47 175.134 163.47ZM131.712 159.798H173.298V85.626H131.712V159.798Z" fill="#846F75"/>
<path d="M170.043 151.792H134.968C133.954 151.792 133.132 150.97 133.132 149.956V91.0625C133.132 90.0483 133.954 89.2266 134.968 89.2266H170.043C171.057 89.2266 171.879 90.0483 171.879 91.0625V149.956C171.879 150.97 171.057 151.792 170.043 151.792ZM136.804 148.12H168.207V92.8984H136.804V148.12Z" fill="#846F75"/>
<path d="M157.107 157.606H147.905C146.89 157.606 146.069 156.785 146.069 155.771C146.069 154.756 146.89 153.935 147.905 153.935H157.107C158.121 153.935 158.943 154.756 158.943 155.771C158.943 156.785 158.121 157.606 157.107 157.606Z" fill="#846F75"/>
<path d="M92.4071 100.348C91.3533 100.348 90.3509 99.8955 89.6539 99.1054L79.9323 88.0868C78.5906 86.5659 78.7352 84.246 80.2561 82.9043C81.7763 81.5626 84.0969 81.708 85.4386 83.2282L92.3858 91.1021L106.812 74.4994C108.142 72.969 110.462 72.8067 111.992 74.1359C113.523 75.4658 113.686 77.785 112.356 79.3162L95.1794 99.0841C94.4854 99.8831 93.48 100.344 92.4211 100.348C92.4166 100.348 92.4115 100.348 92.4071 100.348Z" fill="#58518c"/>
<path d="M150.334 128.529C149.597 128.529 148.895 128.212 148.407 127.659L143.045 121.584C142.106 120.519 142.207 118.895 143.272 117.956C144.335 117.018 145.96 117.118 146.899 118.183L150.318 122.058L157.865 113.373C158.795 112.301 160.418 112.187 161.491 113.118C162.563 114.049 162.677 115.673 161.745 116.744L152.274 127.645C151.789 128.205 151.085 128.527 150.344 128.53C150.341 128.529 150.337 128.529 150.334 128.529Z" fill="#58518c"/>
</svg>

<svg width="188" height="188" fill="none" xmlns="http://www.w3.org/2000/svg"><path d="M35.495 116.285h94.381v6.6H35.494v-6.6z" fill="#EBE7F2"/><path d="M25.703 127.291a1.835 1.835 0 01-1.836-1.836V47.612a5.514 5.514 0 015.508-5.508h129.25a5.514 5.514 0 015.508 5.508v29.497a1.836 1.836 0 11-3.672 0V47.612a1.838 1.838 0 00-1.836-1.836H29.375a1.838 1.838 0 00-1.836 1.836v77.843a1.835 1.835 0 01-1.836 1.836z" fill="#846F75"/><path d="M122.457 124.721H35.495a1.836 1.836 0 01-1.836-1.836V53.119c0-1.014.821-1.835 1.836-1.835h117.01c1.015 0 1.836.821 1.836 1.836v23.99a1.835 1.835 0 11-3.672 0V54.954H37.33v66.094h85.127a1.836 1.836 0 110 3.672zm0 21.175H19.951c-4.32 0-7.834-3.514-7.834-7.834 0-4.319 3.514-7.833 7.834-7.833h102.506a1.836 1.836 0 110 3.672H19.951a4.166 4.166 0 00-4.162 4.161 4.166 4.166 0 004.162 4.162h102.506a1.836 1.836 0 110 3.672z" fill="#846F75"/><path d="M134.968 143.38h35.075v6.576h-35.075v-6.576z" fill="#EBE7F2"/><path d="M175.134 163.47h-45.258a1.835 1.835 0 01-1.836-1.836V83.79c0-1.014.821-1.836 1.836-1.836h45.258c1.014 0 1.836.822 1.836 1.836v77.844a1.836 1.836 0 01-1.836 1.836zm-43.422-3.672h41.586V85.626h-41.586v74.172z" fill="#846F75"/><path d="M170.043 151.792h-35.075a1.836 1.836 0 01-1.836-1.836V91.063c0-1.015.822-1.836 1.836-1.836h35.075c1.014 0 1.836.821 1.836 1.835v58.894a1.836 1.836 0 01-1.836 1.836zm-33.239-3.672h31.403V92.898h-31.403v55.222zm20.303 9.486h-9.202a1.835 1.835 0 110-3.671h9.202a1.835 1.835 0 110 3.671z" fill="#846F75"/><path d="M92.407 100.348a3.67 3.67 0 01-2.753-1.243l-9.722-11.018a3.671 3.671 0 115.507-4.859l6.947 7.874L106.812 74.5a3.673 3.673 0 015.544 4.817L95.179 99.084a3.672 3.672 0 01-2.758 1.264h-.014zm57.927 28.181a2.57 2.57 0 01-1.927-.87l-5.362-6.075a2.57 2.57 0 013.854-3.401l3.419 3.875 7.547-8.685a2.57 2.57 0 113.88 3.371l-9.471 10.901a2.566 2.566 0 01-1.93.885l-.01-.001z" fill="#58518c"/></svg>
